svg/300/sharp/calendar_add_on.svg

<svg xmlns="http://www.w3.org/2000/svg" width="48" height="48" viewBox="0 -960 960 960"><path d="M704.616-90v-120.001h-120v-45.383h120v-120h45.383v120h120v45.383h-120v120h-45.383Zm-564.615-90.001v-614.613H271.54v-70h50.384v70h237.691v-70h49.229v70h131.155v336.229q-11.346-.846-22.692-.846t-22.692.846v-96.614h-509.23v329.614h315q0 11.154 1.846 22.692t4.538 22.692H140.001Zm45.384-420.381h509.23V-749.23h-509.23v148.848Zm0 0V-749.23v148.848Z"/></svg>

<svg xmlns="http://www.w3.org/2000/svg" width="48" height="48" viewBox="0 -960 960 960"><path d="M704.62-90v-120h-120v-45.38h120v-120H750v120h120V-210H750v120h-45.38ZM140-180v-614.61h131.54v-70h50.38v70h237.69v-70h49.23v70H740v336.23q-11.35-.85-22.69-.85-11.35 0-22.7.85V-555H185.39v329.61h314.99q0 11.16 1.85 22.7 1.85 11.53 4.54 22.69H140Zm45.39-420.38h509.22v-148.85H185.39v148.85Zm0 0v-148.85 148.85Z"/></svg>
